X: 9721
T: Deep Waters
R: hornpipe
M: 4/4
K: Gmajor
d>Bd>B g2 (3gfe|d>Bd>B G2 (3ABc|d2 ^cd e>d=c>B|(3BcB A2 A2 (3ABc|
d>B (3dcB (3gag f>e|d>^cd>B G2 B>=c|d>gf>g e>cA>F|G2 B2 G2:|
a2 a>f d2 f>a|g>a (3gfe d2 f>g|a2 (3agf d2 d>c|(3Bcd e>^c (2ded (3gfe|
d>Bg>e d2 g2|d>Bd>B G2 (3ABc|d>gf>g e>cA>F|G2 B2 G2:|

